X:1
T:Buttered Pease [1]
M:C|
L:1/8
R:Country Dance
B:John Walsh - Caledonian Country Dances (c. 1745, p. 29)
N:Published in several volumes and different editions, 1731-c. 1745)
Z:AK/Fiddler's Companion
K:G
B2 d4 cB|c2 e4 dc|B2 d4 cB|c2 A4 dc|
B2 d4 cB|c2 e4 dc|Bcd2 ABc2|B2G2 G4:|
|:B2d4 ef|gfga g4|B2 d4 cB|c2 A4 dc|
B2 d4 ef|gfga g4|Bc d2 AB c2|B2G2 G4:|]
